X: 7
T:Da Rodd ta Houll
M:C
L:1/8
S:AB AB
R:Tune 2
K:D
nA2|d2 fd A2 dA|GABG E2 F-G|A2A2 ABcd|f2 e2 e2 A2|!
d2 fd A2 dA|GABG E2F-G|A2 A2 ABAG|1F2D2D2:|2F2D2D
2f-g||!
a2 af d2 dA|BABd A2 F2|G2 B2 ABcd|f2e2e2f-g|a2 af
d2dA|!
BABd A2F2|G2B2 ABAG|F2D2D2f-g|a2 af d2 dA|BABd A2 F2|!
G2 B2 ABcd|f2 e2 e2 A2|d2 fd A2 dA|GABG E2 F-G|A2A2ABAG|F2 D2 D2||
